X:81
T:Connundrum, The 
C:Joe Buchanan's Scottish Tome - Page 333.0
I:333 0
R:Hornpipe
Z:Carl Allison
L:1/8
M:2/4
K:A
A/>B/ | "A" c/>A/c e/>f/c | A/>c/e/<g/ "D" f(e/>f/) | "A" ae/<f/ e/>f/c | "A" A/>c/e/>c/ "E7" B/>B/A/<B/ |
"A" c/>A/c e/>f/c | A/>c/e/<a/ "D" f(e/>f/) | "A" ae/>f/ e/>f/c | "E7" BA "A" A/<A/ :|
f/>g/ | "A" ae/>f/ a/>e/a | e/>f/a/>f/ "D" f(e/>f/) | "A" ae/>f/ e/>f/c | "A" A/>c/e/>c/ "E7" Bf/>g/ |
"A" ae/>f/ a/>e/a | e/>f/g/>e/ "D" f(e/>f/) | "D" ae/>f/ e/>f/c | "E7" BA "A" A/>A/f/<g/ |
"A" ae/>f/ a/>e/a | e/>f/g/>e/ "D" f(e/>f/) | "A" ae/>f/ e/>f/c | "A" A/>c/e/>c/ "E7" BA/>B/ |
"A" cA/>c/ e/>f/c | A/>c/e/<a/ "D" f(e/>f/) | "A" ae/>f/ "D" fe/>f/ | "E7" BA "A" A/<A/ |]
e | "A" A/>B/c A/>B/c/<A/ | (c/<e/)A/>B/ ce | "D" f/>g/a/>f/ "A" e/>f/c | "A" A/>c/e/>c/ "E7" B/<B/e |
"A" A/>B/c A/>B/c/<A/ | (c/<e/)A/>B/ ce | "D" f/>g/a/>f/ "A" e/>f/c | "E7" BA "A" A/<A/ :|
a | "D" f/>e/a/>e/ f(e/<a/) | fe/<a/ f/e/a/>e/ | "D" f/>g/a/>f/ "A" e/>f/c | "A" A/>c/e/>c/ "E7" Ba |
"A" f/>e/a/>e/ f(e/<a/) | fe/<a/ f/e/a/>e/ | "D" f/>g/a/>f/ "A" e/>f/c | "E7" BA "A" A/<A/a |
"D" f/>e/a/>e/ f(e/<a/) | fe/<a/ f/>e/g/>e/ | "D" f/>g/a/>f/ "A" e/>f/c | "A" A/>c/e/>c/ "E7" BA/>B/ |
"A" cd/>c/ e/>A/c | d/>c/e/>c/ fe/>f/ | "A" ae/>f/ f/>e/f | "E7" BA "A" A/<A/ |]

